icons/lines/finger-scan.svg

<svg xmlns="http://www.w3.org/2000/svg" width="24" height="24" viewBox="0 0 24 24" fill="none" stroke="currentColor" stroke-width="2" stroke-linecap="round" stroke-linejoin="round" >
  <path d="M12.0001 14.88C11.0901 14.88 10.3501 14.14 10.3501 13.23V10.76C10.3501 9.85001 11.0901 9.10999 12.0001 9.10999C12.9101 9.10999 13.6501 9.85001 13.6501 10.76V13.23C13.6501 14.14 12.9101 14.88 12.0001 14.88Z"/>
  <path d="M16.98 13.4699C16.78 16.0499 14.62 18.0699 12 18.0699C9.24 18.0699 7 15.8299 7 13.0699V10.9299C7 8.16993 9.24 5.92993 12 5.92993C14.59 5.92993 16.72 7.89992 16.97 10.4199"/>
  <path d="M15 2H17C20 2 22 4 22 7V9" stroke-miterlimit="10"/>
  <path d="M2 9V7C2 4 4 2 7 2H9" stroke-miterlimit="10"/>
  <path d="M15 22H17C20 22 22 20 22 17V15" stroke-miterlimit="10"/>
  <path d="M2 15V17C2 20 4 22 7 22H9" stroke-miterlimit="10"/>
  </svg>

<svg xmlns="http://www.w3.org/2000/svg" width="24" height="24" viewBox="0 0 24 24" fill="none" stroke="currentColor" stroke-width="2" stroke-linecap="round" stroke-linejoin="round">
  <path d="M15 22h2c3 0 5-2 5-5v-2" />
  <path d="M15 2h2c3 0 5 2 5 5v2" />
  <path d="M16.98 13.47a5 5 0 0 1-9.98-.4v-2.14a5 5 0 0 1 9.97-.51" />
  <path d="M2 15v2c0 3 2 5 5 5h2" />
  <path d="M2 9V7c0-3 2-5 5-5h2" />
  <rect x="10.35" y="9.11" width="3.3" height="5.77" rx="1.65" />
</svg>
